X: 20385
T: John Dineen's
R: reel
M: 4/4
K: Aminor
|:A2AB cBAG|E^FGE D4|A2AB cdea|gedB A2A2:|
|:A2AB cBAG|A2AB cBcd|e2ag e2dB|A2G2A4:|

